nova/resources/svg/fluent/warning.svg

<svg viewBox="0 0 24 24" fill="none" xmlns="http://www.w3.org/2000/svg">
<path d="M10.9094 2.78216C11.9492 2.20625 13.2472 2.54089 13.885 3.5224L13.9678 3.66023L21.7268 17.6685C21.9116 18.0021 22.0085 18.3773 22.0085 18.7587C22.0085 19.9495 21.0834 20.9243 19.9126 21.0035L19.7585 21.0087H4.24278C3.86147 21.0087 3.48642 20.9118 3.15283 20.7271C2.11299 20.1513 1.70795 18.8734 2.20151 17.812L2.27441 17.6687L10.0312 3.66046C10.2357 3.2911 10.5401 2.98674 10.9094 2.78216ZM20.4146 18.3953L12.6557 4.38702C12.455 4.02467 11.9985 3.89363 11.6362 4.09433C11.5439 4.14547 11.4637 4.21533 11.4006 4.299L11.3435 4.3871L3.58666 18.3954C3.386 18.7577 3.5171 19.2141 3.87947 19.4148C3.96286 19.461 4.05403 19.4907 4.14803 19.5027L4.24278 19.5087H19.7585C20.1727 19.5087 20.5085 19.1729 20.5085 18.7587C20.5085 18.6633 20.4904 18.5691 20.4553 18.4811L20.4146 18.3953L12.6557 4.38702L20.4146 18.3953ZM12.0005 16.0018C12.552 16.0018 12.9991 16.4489 12.9991 17.0004C12.9991 17.552 12.552 17.9991 12.0005 17.9991C11.4489 17.9991 11.0018 17.552 11.0018 17.0004C11.0018 16.4489 11.4489 16.0018 12.0005 16.0018ZM11.9963 8.49955C12.3759 8.49925 12.69 8.78115 12.7399 9.14718L12.7469 9.24895L12.7505 13.7505C12.7508 14.1648 12.4153 14.5008 12.0011 14.5011C11.6214 14.5014 11.3073 14.2195 11.2574 13.8535L11.2505 13.7517L11.2469 9.25015C11.2465 8.83594 11.582 8.49988 11.9963 8.49955Z" fill="currentColor"/>
</svg>

<svg viewBox="0 0 24 24" fill="none" xmlns="http://www.w3.org/2000/svg"><path d="M10.91 2.782a2.25 2.25 0 012.975.74l.083.138 7.759 14.009a2.25 2.25 0 01-1.815 3.334l-.154.006H4.243A2.25 2.25 0 012.2 17.812l.073-.143L10.031 3.66a2.25 2.25 0 01.878-.878zm9.504 15.613L12.655 4.387a.75.75 0 00-1.255-.088l-.057.088-7.757 14.008a.75.75 0 00.562 1.108l.095.006h15.515a.75.75 0 00.697-1.028l-.04-.086-7.76-14.008 7.76 14.008zM12 16.002a.999.999 0 110 1.997.999.999 0 010-1.997zM11.996 8.5a.75.75 0 01.744.647l.007.102.003 4.502a.75.75 0 01-1.493.103l-.007-.102-.003-4.502a.75.75 0 01.75-.75z" fill="currentColor"/></svg>
